X: 32943
T: President Garfield's
R: hornpipe
M: 4/4
K: Dmajor
|:(3fge|d>A (3FGA d>AF>A|d>c (3def f>e (3fga|a>ec>e a>e (3cde|a>^ga>b (3a=gf (3edc|
d>AF>A d>AF>A|d2 d>e f2 f>g|(3aba c'>b a>gf>e|1 d2 c2 d2:|2 (3ded c>e d>A||
|:d'>c'|b>gd>B (3GAB d>b|a>fd>A (3FGA d>a|g>cb>a g>cb>a|f>db>a f>dd'>c'|
b>gd>B G>Bd>b|a>fd>A F>Ad>a|^g>ac'>b (3aba (3gfe|d>Af>e d2:|

